material/.icons/material/account-tie-voice-outline.svg

<svg xmlns="http://www.w3.org/2000/svg" viewBox="0 0 24 24"><path d="M16.75 4.36c2.02 2.2 2.02 5.25 0 7.27l-1.68-1.69c.84-1.18.84-2.71 0-3.89l1.68-1.69M20.06 1c3.94 4.05 3.9 10.11 0 14l-1.63-1.63c2.77-3.18 2.77-7.72 0-10.74L20.06 1m-6.7 12.76C15.31 14.42 17 15.5 17 17v5H1v-5c0-1.5 1.69-2.58 3.65-3.24L5.27 15l.23.5c-1.5.46-2.6 1.12-2.6 1.5v3.1h4.22L8 15.03l-.94-1.88c.62-.07 1.27-.12 1.94-.12s1.32.05 1.94.12L10 15.03l.88 5.07h4.22V17c0-.38-1.1-1.04-2.6-1.5l.23-.5.63-1.24M9 6c-1.1 0-2 .9-2 2s.9 2 2 2 2-.9 2-2-.9-2-2-2m0 6c-2.21 0-4-1.79-4-4s1.79-4 4-4 4 1.79 4 4-1.79 4-4 4z"/></svg>

<?xml version="1.0" encoding="UTF-8"?><!DOCTYPE svg PUBLIC "-//W3C//DTD SVG 1.1//EN" "http://www.w3.org/Graphics/SVG/1.1/DTD/svg11.dtd"><svg xmlns="http://www.w3.org/2000/svg" xmlns:xlink="http://www.w3.org/1999/xlink" version="1.1" id="mdi-account-tie-voice-outline" width="24" height="24" viewBox="0 0 24 24"><path d="M16.75 4.36C18.77 6.56 18.77 9.61 16.75 11.63L15.07 9.94C15.91 8.76 15.91 7.23 15.07 6.05L16.75 4.36M20.06 1C24 5.05 23.96 11.11 20.06 15L18.43 13.37C21.2 10.19 21.2 5.65 18.43 2.63L20.06 1M13.36 13.76C15.31 14.42 17 15.5 17 17V22H1V17C1 15.5 2.69 14.42 4.65 13.76L5.27 15L5.5 15.5C4 15.96 2.9 16.62 2.9 17V20.1H7.12L8 15.03L7.06 13.15C7.68 13.08 8.33 13.03 9 13.03S10.32 13.08 10.94 13.15L10 15.03L10.88 20.1H15.1V17C15.1 16.62 14 15.96 12.5 15.5L12.73 15L13.36 13.76M9 6C7.9 6 7 6.9 7 8S7.9 10 9 10 11 9.1 11 8 10.1 6 9 6M9 12C6.79 12 5 10.21 5 8S6.79 4 9 4 13 5.79 13 8 11.21 12 9 12Z" /></svg>
